X:34
T:RVW2/2/34 Down in Our Village
C:Mr. Harris, Little Bursted, Essex, 16 April 1904
L:1/8
Q:1/4=90
M:2/4
I:linebreak $
K:G
"^(Editorial suggestion)  " D | GG (BG) | FA DD | GB (BG) | FA z D |$ GB (3(dB)G | FA !fermata!DD | 
w: Down,|down in our *|vil- lage gay; Down,|down in our *|vil- lage *|* * lads * and|las- ses gay down|
GG (BG) | A G z |] 
w: down in our *|vil- lage.|



